X: 39113
T: Sweet And Kiss
R: polka
M: 2/4
K: Dmajor
|:A/d/|f(3f/g/f/ e(3e/f/e/|dA A>G|F/A/d/A/ F/A/d|cB B/A/B|
g2 f(3f/g/f/|eB c>B|A/c/e A/d/f|Ba a>g|
f(3f/g/f/ e(3e/f/e/|dA A>G|F/A/d/A/ F/A/d|cB B/A/B|
g2 f(3f/g/f/|eB c>B|AA ec|ed d:|
|:f|aa bf|ag g/f/g|gf/g/ ad|gf f/e/f/g/|
aa bf|ag g/f/g|fA f>e|ed d:|

